icons/mobile/24/svg/bookmark-slash-24.svg

<svg width="24" height="24" viewBox="0 0 24 24" fill="none" xmlns="http://www.w3.org/2000/svg">
<path fill-rule="evenodd" clip-rule="evenodd" d="M2.75591 2.75582C3.09762 2.41416 3.65249 2.41416 3.9942 2.75582L22.2442 21.0058C22.5859 21.3475 22.5859 21.9024 22.2442 22.2441C21.9025 22.5858 21.3476 22.5858 21.0059 22.2441L18.669 19.9072C18.5408 20.2903 18.2997 20.635 17.9581 20.8974C17.5821 21.1863 17.1288 21.333 16.6739 21.333C16.317 21.3329 15.9578 21.2444 15.6319 21.0615C15.0289 20.7225 14.4399 20.3557 13.8809 19.9707C13.231 19.5247 12.5999 19.0411 12.002 18.5312C11.4041 19.0401 10.772 19.5247 10.1221 19.9716C9.56412 20.3556 8.97512 20.7225 8.37212 21.0605C7.63018 21.4784 6.71588 21.4123 6.04595 20.8984C5.37295 20.3814 5.08595 19.5476 5.29595 18.7226L6.38384 14.4541C5.37797 13.8721 4.4212 13.2 3.5313 12.4521C3.21838 12.1882 2.92346 11.924 2.64752 11.6621C2.04153 11.0881 1.84302 10.242 2.12798 9.45407C2.41498 8.66307 3.14062 8.11842 3.97662 8.06442L6.65142 7.88961L2.75591 3.9941C2.41424 3.65239 2.41422 3.09752 2.75591 2.75582ZM4.08795 9.81051C3.87847 9.8236 3.7986 9.98163 3.77447 10.0488C3.74147 10.1408 3.72764 10.2746 3.85064 10.3906C4.10164 10.6286 4.37129 10.8723 4.65728 11.1123C5.62924 11.9312 6.69069 12.6471 7.80962 13.2461C8.16539 13.4351 8.34514 13.8425 8.24517 14.2334L6.99127 19.1552C6.94536 19.3361 7.03141 19.4468 7.11138 19.5088C7.16738 19.5528 7.32066 19.6412 7.51666 19.5332C8.07145 19.2213 8.61511 18.8831 9.12994 18.5293C9.77694 18.0853 10.4032 17.6008 10.9922 17.0898C11.2842 16.8369 11.6421 16.71 12.001 16.7099C12.3599 16.7099 12.7179 16.837 13.0098 17.0898C13.5988 17.5998 14.2251 18.0853 14.8711 18.5283C15.3861 18.8843 15.9304 19.2222 16.4864 19.5341C16.6813 19.64 16.8337 19.5527 16.8917 19.5088C16.9715 19.4477 17.0567 19.3368 17.0108 19.1552L16.7002 17.9384L8.29888 9.53707L4.08795 9.81051Z" fill="black"/>
<path d="M12.0001 2.66403C12.8641 2.66403 13.6293 3.18232 13.9483 3.98532L15.4542 7.76754L20.0264 8.06539C20.8613 8.11954 21.5861 8.66416 21.8731 9.45504C22.1581 10.2429 21.9603 11.0891 21.3565 11.6621C21.0775 11.9251 20.7818 12.1891 20.4688 12.4531C19.616 13.1709 18.6972 13.8139 17.7354 14.3798L16.4483 13.0927C17.4711 12.5238 18.448 11.8681 19.3428 11.1142C19.6308 10.8732 19.9004 10.6296 20.1534 10.3916C20.2739 10.2766 20.2596 10.1426 20.2266 10.0507C20.2025 9.98353 20.1226 9.82647 19.9141 9.81246L14.7891 9.48043C14.4521 9.45843 14.1573 9.24365 14.0333 8.92965L12.3223 4.63278C12.2463 4.44189 12.088 4.41403 12.0001 4.41403C11.9121 4.41403 11.7538 4.44289 11.6788 4.6318L10.628 7.27145L9.2813 5.92379L10.0528 3.98434C10.3708 3.18334 11.1361 2.66403 12.0001 2.66403Z" fill="black"/>
</svg>

<!-- This Source Code Form is subject to the terms of the Mozilla Public
   - License, v. 2.0. If a copy of the MPL was not distributed with this
   - file, You can obtain one at http://mozilla.org/MPL/2.0/. -->
<svg xmlns="http://www.w3.org/2000/svg" width="24" height="24" fill="none" viewBox="0 0 24 24">
    <path fill="#000" fill-rule="evenodd" d="M2.756 2.756a.876.876 0 0 1 1.238 0l18.25 18.25a.876.876 0 0 1-1.238 1.238l-2.337-2.337a2.11 2.11 0 0 1-1.995 1.426c-.357 0-.716-.089-1.042-.271a23 23 0 0 1-3.63-2.53 22.5 22.5 0 0 1-3.63 2.528 2.12 2.12 0 0 1-2.326-.162 2.06 2.06 0 0 1-.75-2.175l1.088-4.269a20 20 0 0 1-3.736-2.792 2.04 2.04 0 0 1-.52-2.208 2.11 2.11 0 0 1 1.849-1.39L6.65 7.89 2.756 3.994a.876.876 0 0 1 0-1.238M4.088 9.81a.35.35 0 0 0-.314.238.3.3 0 0 0 .077.342q.376.359.806.721a18.3 18.3 0 0 0 3.153 2.134.87.87 0 0 1 .435.987l-1.254 4.922a.32.32 0 0 0 .12.354c.056.044.21.132.406.024a21 21 0 0 0 3.476-2.443c.291-.253.65-.38 1.008-.38.359 0 .717.127 1.009.38a21 21 0 0 0 3.476 2.444.36.36 0 0 0 .406-.025.32.32 0 0 0 .119-.354l-.31-1.217-8.402-8.4z" clip-rule="evenodd" />
    <path fill="#000" d="M12 2.664c.864 0 1.63.518 1.948 1.321l1.506 3.783 4.572.297c.835.055 1.56.6 1.847 1.39a2.04 2.04 0 0 1-.517 2.207q-.418.395-.887.791a20 20 0 0 1-2.734 1.927l-1.287-1.287c1.023-.57 2-1.225 2.895-1.979.288-.24.557-.484.81-.722a.305.305 0 0 0 .074-.341.35.35 0 0 0-.313-.239L14.79 9.48a.87.87 0 0 1-.756-.55l-1.71-4.297A.33.33 0 0 0 12 4.414a.33.33 0 0 0-.321.218l-1.051 2.64-1.347-1.348.772-1.94A2.085 2.085 0 0 1 12 2.664" />
</svg>
